v/0.4.11/design-resources/icons/wf_doctype-icons/file-msexcel.svg

<?xml version="1.0" encoding="utf-8"?>
<!-- Generated by IcoMoon.io -->
<!DOCTYPE svg PUBLIC "-//W3C//DTD SVG 1.1//EN" "http://www.w3.org/Graphics/SVG/1.1/DTD/svg11.dtd">
<svg version="1.1" xmlns="http://www.w3.org/2000/svg" xmlns:xlink="http://www.w3.org/1999/xlink" width="512" height="512" viewBox="0 0 512 512">
<g>
</g>
	<path d="M101.541 462.002l9.524-14.002h-47.065v-384h284.8c19.409 0 35.2 15.791 35.2 35.2v92.8h32v-92.8c0-37.114-30.086-67.2-67.2-67.2h-316.8v448h57.299l12.242-17.998z" fill="#595959" />
	<path d="M416 470.235v-255.48l-32 48.366v159.563l26.548 39.45z" fill="#595959" />
	<path d="M384 480h-70.385l-55.83-84.397-25.138 36.397h29.752v48h-134.399l93.938-138.103-79.039-117.897h66.905l47.979 70.516 47.983-70.516h65.747l-79.217 119.73z" fill="#595959" />
</svg>

<svg xmlns="http://www.w3.org/2000/svg" width="512" height="512" viewBox="0 0 512 512"><path stroke="#449FDB" d="M0 0"/><path d="M101.54 462.002L111.066 448H64V64h284.8c19.41 0 35.2 15.79 35.2 35.2V192h32V99.2c0-37.114-30.086-67.2-67.2-67.2H32v448h57.3l12.24-17.998zM416 470.235v-255.48l-32 48.366v159.565l26.548 39.45zM384 480h-70.385l-55.83-84.397L232.647 432H262.4v48H128l93.938-138.103L142.898 224h66.906l47.98 70.516L305.764 224h65.748l-79.217 119.73z" fill="#595959"/></svg>
